X:6
T:untitled polka 1
S:Flos Headford <flos:madasafish.com> tradtunes 2010-4-7
C:not known
R:polka
O:England
Z:PJHeadford
M:C| 
L:1/8
Q:1/2=90
K:D
|: d2A2 ABAG | F2A2 AABc | d2A2 ABAG | F2E2 EABc |\ 
d2A2 ABAG | F2A2 A2AG | F2A2 ABAG | F2D2 D4 :|] 
|: E2G2 GFG2 | F2A2 A4 | G2B2 BABc | B2A2 A4 |\ 
D2F2 A2AA | B2G2 E2DE | F2A2 ABAG | F2E2 D4 :|] 
W:Similar to Lancashire Hp. WI.099 Wm Irwin, Folio MS, c1850.
W:Also to Girl with the Green Hat on.

